icon_installer/data/icons/scalable/actions/show-ups-symbolic.svg

<?xml version="1.0" encoding="UTF-8"?>
<svg height="16px" viewBox="0 0 16 16" width="16px" xmlns="http://www.w3.org/2000/svg">
    <g fill="#222222">
        <path d="m 4.199219 0 c -1.203125 0 -2.199219 1 -2.199219 2.199219 v 11.601562 c 0 1.199219 0.996094 2.199219 2.199219 2.199219 h 7.605469 c 1.203124 0 2.195312 -1 2.195312 -2.199219 v -11.601562 c 0 -1.199219 -0.992188 -2.199219 -2.195312 -2.199219 z m 0 2 h 7.605469 c 0.125 0 0.195312 0.070312 0.195312 0.199219 v 11.601562 c 0 0.128907 -0.070312 0.199219 -0.195312 0.199219 h -7.605469 c -0.125 0 -0.199219 -0.070312 -0.199219 -0.199219 v -11.601562 c 0 -0.128907 0.074219 -0.199219 0.199219 -0.199219 z m 0 0"/>
        <path d="m 8.78125 5 c -0.179688 0.050781 -0.34375 0.148438 -0.46875 0.28125 l -3.03125 3 c -0.238281 0.230469 -0.347656 0.582031 -0.28125 0.90625 v 0.8125 h 2.46875 l -1.1875 1.273438 c -0.214844 0.21875 -0.320312 0.539062 -0.28125 0.84375 v 0.09375 v 0.78125 h 1 c 0.265625 0.003906 0.527344 -0.097657 0.71875 -0.28125 l 3 -2.992188 c 0.183594 -0.191406 0.289062 -0.453125 0.28125 -0.71875 c 0.003906 -0.042969 0.003906 -0.082031 0 -0.125 v -0.875 h -2.5625 l 1.3125 -1.28125 c 0.214844 -0.21875 0.320312 -0.539062 0.28125 -0.84375 c 0 -0.03125 0 -0.0625 0 -0.09375 v -0.78125 h -0.9375 c -0.023438 0 -0.042969 0 -0.0625 0 c -0.085938 -0.011719 -0.167969 -0.011719 -0.25 0 z m 0 0"/>
    </g>
</svg>

<svg xmlns="http://www.w3.org/2000/svg" width="16" height="16"><g fill="#222"><path d="M4.2 0C2.995 0 2 1 2 2.2v11.6C2 15 2.996 16 4.2 16h7.605C13.008 16 14 15 14 13.8V2.2C14 1 13.008 0 11.805 0zm0 2h7.605c.125 0 .195.07.195.2v11.6c0 .13-.07.2-.195.2H4.199C4.074 14 4 13.93 4 13.8V2.2c0-.13.074-.2.2-.2zm0 0"/><path d="M8.781 5a1.03 1.03 0 0 0-.469.281l-3.03 3A1 1 0 0 0 5 9.187V10h2.469L6.28 11.273c-.215.22-.32.54-.281.844v.875h1c.266.004.527-.097.719-.281l3-2.992c.183-.192.289-.453.281-.719a.668.668 0 0 0 0-.125V8H8.437L9.75 6.719c.215-.219.32-.54.281-.844V5h-1a.893.893 0 0 0-.25 0zm0 0"/></g></svg>
